icons/svg/amenity/vehicle_inspection.svg

<?xml version="1.0" encoding="UTF-8" standalone="no"?>
<!-- Created with Inkscape (http://www.inkscape.org/) -->

<svg
   xmlns:dc="http://purl.org/dc/elements/1.1/"
   xmlns:cc="http://creativecommons.org/ns#"
   xmlns:rdf="http://www.w3.org/1999/02/22-rdf-syntax-ns#"
   xmlns:svg="http://www.w3.org/2000/svg"
   xmlns="http://www.w3.org/2000/svg"
   xmlns:sodipodi="http://sodipodi.sourceforge.net/DTD/sodipodi-0.dtd"
   xmlns:inkscape="http://www.inkscape.org/namespaces/inkscape"
   version="1.0"
   width="580"
   height="580"
   id="svg2"
   sodipodi:version="0.32"
   inkscape:version="0.48.4 r9939"
   sodipodi:docname="vehicle_inspection.svg"
   inkscape:output_extension="org.inkscape.output.svg.inkscape">
  <metadata
     id="metadata10">
    <rdf:RDF>
      <cc:Work
         rdf:about="">
        <dc:format>image/svg+xml</dc:format>
        <dc:type
           rdf:resource="http://purl.org/dc/dcmitype/StillImage" />
        <cc:license
           rdf:resource="http://web.resource.org/cc/PublicDomain" />
        <dc:language>en</dc:language>
        <dc:title></dc:title>
      </cc:Work>
    </rdf:RDF>
  </metadata>
  <sodipodi:namedview
     inkscape:window-height="1004"
     inkscape:window-width="1920"
     inkscape:pageshadow="2"
     inkscape:pageopacity="0.0"
     guidetolerance="10.0"
     gridtolerance="10.0"
     objecttolerance="10.0"
     borderopacity="1.0"
     bordercolor="#666666"
     pagecolor="#ffffff"
     id="base"
     showgrid="false"
     inkscape:zoom="0.5"
     inkscape:cx="706.18211"
     inkscape:cy="391.00565"
     inkscape:window-x="1680"
     inkscape:window-y="0"
     inkscape:current-layer="svg2"
     inkscape:window-maximized="1" />
  <defs
     id="defs4">
    <clipPath
       id="clipoutline2"
       clipPathUnits="userSpaceOnUse">
      <path
         d="M 55.8,12 L 56.56,12.16 C 65.4,9.22 85.24,20.8 80.82,31.12 C 79.7,32.74 79.89,35.62 81.24,37.43 L 56.43,62.25 C 55.04,60.86 51.95,60.89 50.53,62.25 L 9.5,101.63 C 5.76,105.22 8.7,108.27 10.28,109.88 L 17.64,117.24 C 19.25,118.84 23.5,121 26.52,117.8 L 65.24,76.99 C 66.59,75.57 66.6,72.52 65.24,71.12 C 65.24,71.12 65.25,71.1 65.24,71.1 L 90.15,46.2 C 92.78,48.57 95.263827,48.774854 97.62,48.13 C 102.17057,46.884568 104.70725,51.336643 107.43,54.59 L 106.2,55.8 C 104.38,57.64 104.55,60.74 106.59,62.78 C 108.63,64.82 111.74,64.99 113.56,63.17 L 121.7,55.04 C 123.52,53.2 123.35,50.1 121.3,48.07 C 119.46,46.22 116.79,45.98 114.93,47.3 C 109.35,41.04 112.28,40.1 104.92,31.95 L 91.13,17.86 C 81.2,8.12 68.3,8.13 55.8,12 z"
         id="outline2" />
    </clipPath>
    <clipPath
       id="clipoutline1"
       clipPathUnits="userSpaceOnUse">
      <path
         d="M 22.42,17.2 L 35.38,30.15 L 32.88,38.93 L 24.1,41.43 L 11.14,28.47 L 5.28,34.33 L 20.17,55.79 L 37.73,52.45 L 99.36,118.07 C 108.8,127.58 121.53,113.32 112.7,105.2 L 46.85,42.92 L 50.86,25.16 L 28.72,10.89 L 22.42,17.2 z M 103.48,109.17 C 105.16,107.49 107.88,107.49 109.56,109.17 C 111.24,110.85 111.24,113.57 109.56,115.25 C 107.88,116.92 105.16,116.92 103.48,115.25 C 101.8,113.57 101.8,110.85 103.48,109.17 z"
         id="outline1" />
    </clipPath>
    <inkscape:perspective
       sodipodi:type="inkscape:persp3d"
       inkscape:vp_x="0 : 290 : 1"
       inkscape:vp_y="0 : 1000 : 0"
       inkscape:vp_z="580 : 290 : 1"
       inkscape:persp3d-origin="290 : 193.33333 : 1"
       id="perspective12" />
    <style
       type="text/css"
       id="style6">
   
    .fil0 {fill:#EF7900}
   
  </style>
    <inkscape:perspective
       id="perspective6807"
       inkscape:persp3d-origin="29.116032 : 19.410688 : 1"
       inkscape:vp_z="58.232063 : 29.116032 : 1"
       inkscape:vp_y="0 : 1000 : 0"
       inkscape:vp_x="0 : 29.116032 : 1"
       sodipodi:type="inkscape:persp3d" />
    <inkscape:perspective
       id="perspective6954"
       inkscape:persp3d-origin="290 : 193.33333 : 1"
       inkscape:vp_z="580 : 290 : 1"
       inkscape:vp_y="0 : 1000 : 0"
       inkscape:vp_x="0 : 290 : 1"
       sodipodi:type="inkscape:persp3d" />
    <marker
       viewBox="0 0 10 10"
       refY="5"
       refX="10"
       orient="auto"
       markerWidth="4"
       markerUnits="strokeWidth"
       markerHeight="3"
       id="ArrowStart">
      <path
         id="path2295"
         d="M 10 0 L 0 5 L 10 10 z" />
    </marker>
    <marker
       viewBox="0 0 10 10"
       refY="5"
       refX="0"
       orient="auto"
       markerWidth="4"
       markerUnits="strokeWidth"
       markerHeight="3"
       id="ArrowEnd">
      <path
         id="path2292"
         d="M 0 0 L 10 5 L 0 10 z" />
    </marker>
    <inkscape:perspective
       id="perspective7597"
       inkscape:persp3d-origin="178.5405 : 158.483 : 1"
       inkscape:vp_z="357.08099 : 237.7245 : 1"
       inkscape:vp_y="0 : 1000 : 0"
       inkscape:vp_x="0 : 237.7245 : 1"
       sodipodi:type="inkscape:persp3d" />
  </defs>
  <g
     id="g1327"
     transform="translate(0.5,-0.5)">
    <path
       d="M 66.275,1.768 C 24.94,1.768 1.704,23.139 1.704,66.804 l 0,450.123 c 0,40.844 20.894,62.229 62.192,62.229 l 452.024,0 c 41.307,0 62.229,-20.316 62.229,-62.229 l 0,-450.123 c 0,-42.601 -20.922,-65.036 -63.522,-65.036 -0.003,0 -448.494,-0.143 -448.352,0 z"
       style="fill:#111111;stroke:#eeeeee;stroke-width:3.40799999"
       id="path1329"
       inkscape:connector-curvature="0" />
  </g>
  <path
     style="fill:#ffffff;stroke:none"
     d="m 150.65347,222.25321 c -24.56951,0 -37.60793,13.42419 -43.625,29.125 l -31.937495,82.46875 c -12.66177,1.62359 -35.125,16.46943 -35.125,44.625 l 0,104.875 31.09375,0 0,33.5625 c 0,41.26513 58.406225,40.77913 58.406245,0 l 0,-33.5625 105.03125,0 0.0625,0 105.03125,0 0,33.5625 c 0,40.77913 58.40593,41.26513 58.40625,0 l 0,-33.5625 31.09375,0 0,-104.875 c 0,-12.04398 -4.12092,-21.62908 -9.8125,-28.8125 -5.31745,0.49461 -10.71246,0.75 -16.15625,0.75 -27.09376,0 -52.75792,-6.25158 -75.625,-17.40625 l -92.9375,0 -0.0625,0 -0.0625,0 -126.28125,0 24.0625,-64.90625 c 3.00855,-9.11713 7.53209,-15.71448 18.0625,-15.8125 l 84.15625,0 0.0625,0 0.0625,0 12.53125,0 c -4.61865,-9.55661 -8.37398,-19.60411 -11.1875,-30.03125 l -39.5625,0 -45.6875,0 z m -49.43749,142.3125 c 14.89882,0 26.96874,12.42581 26.96874,27.78125 -2e-5,15.35648 -12.06992,27.8125 -26.96874,27.8125 -14.897735,0 -26.968755,-12.45606 -26.968755,-27.8125 0,-15.35539 12.07102,-27.78125 26.968755,-27.78125 z m 266.65624,0 c 14.89883,0 26.96887,12.42586 26.96875,27.78125 0,15.35644 -12.06992,27.8125 -26.96875,27.8125 -14.89772,0 -27.03125,-12.45602 -27.03125,-27.8125 0,-15.35544 12.13353,-27.78125 27.03125,-27.78125 z"
     id="path2301"
     inkscape:connector-curvature="0" />
  <g
     id="g2319"
     transform="translate(879.29125,36.805119)">
    <path
       id="path2323"
       style="fill:#ffffff;stroke:none"
       d="" />
  </g>
  <g
     id="g2325"
     transform="translate(879.29125,36.805119)">
    <path
       id="path2329"
       style="fill:#ffffff;stroke:none"
       d="" />
  </g>
  <path
     style="font-size:medium;font-style:normal;font-variant:normal;font-weight:normal;font-stretch:normal;text-indent:0;text-align:start;text-decoration:none;line-height:normal;letter-spacing:normal;word-spacing:normal;text-transform:none;direction:ltr;block-progression:tb;writing-mode:lr-tb;text-anchor:start;baseline-shift:baseline;color:#000000;fill:#ffffff;fill-opacity:1;fill-rule:nonzero;stroke:none;stroke-width:27.79999924;marker:none;visibility:visible;display:inline;overflow:visible;enable-background:accumulate;font-family:Sans;-inkscape-font-specification:Sans"
     d="m 403.12777,32.323673 c -79.86142,0 -144.90625,65.04483 -144.90625,144.906247 0,79.86142 65.04483,144.90625 144.90625,144.90625 79.86142,0 144.90626,-65.04483 144.90626,-144.90625 0,-79.861417 -65.04483,-144.906247 -144.90625,-144.906247 z m 0,27.8125 c 64.83718,0 117.09376,52.256567 117.09376,117.093747 0,64.83718 -52.25657,117.09375 -117.09375,117.09375 -64.83718,0 -117.09375,-52.25657 -117.09375,-117.09375 0,-64.83718 52.25657,-117.093747 117.09375,-117.093747 z"
     id="path3843"
     inkscape:connector-curvature="0" />
  <g
     transform="matrix(15.836533,0,0,15.754366,116.24466,-163.98441)"
     id="g13"
     style="fill:#ffffff;fill-opacity:1;stroke:none">
    <path
       style="fill:#ffffff;fill-opacity:1;stroke:none"
       inkscape:connector-curvature="0"
       d="m 25.283797,14.945599 -1.155,-0.784 c -0.317,-0.215 -0.754,-0.133 -0.97,0.184 l -5.654,8.34 -2.6,-2.6 c -0.27,-0.27 -0.714,-0.27 -0.986,0 l -0.986,0.988 c -0.272,0.272 -0.272,0.715 0,0.988 l 3.996,3.996 c 0.224,0.224 0.575,0.396 0.893,0.396 0.316,0 0.636,-0.199 0.841,-0.498 l 6.809,-10.042 c 0.213,-0.316 0.13,-0.752 -0.188,-0.968 z"
       id="path15" />
  </g>
</svg>

<svg width="580" height="580" viewBox="0 0 580 580" fill="none" xmlns="http://www.w3.org/2000/svg">
<g clip-path="url(#clip0)">
<path d="M66.7751 1.2679C25.4401 1.2679 2.2041 22.6389 2.2041 66.3039V516.427C2.2041 557.271 23.0981 578.656 64.3961 578.656H516.42C557.727 578.656 578.649 558.34 578.649 516.427V66.3039C578.649 23.7029 557.727 1.2679 515.127 1.2679C515.124 1.2679 66.6331 1.1249 66.7751 1.2679V1.2679Z" fill="#111111" stroke="#EEEEEE" stroke-width="3.408"/>
<path d="M150.653 222.253C126.084 222.253 113.045 235.677 107.028 251.378L75.0908 333.847C62.429 335.471 39.9658 350.316 39.9658 378.472V483.347H71.0596V516.909C71.0596 558.175 129.466 557.689 129.466 516.909V483.347H234.497H234.56H339.591V516.909C339.591 557.689 397.997 558.175 397.997 516.909V483.347H429.091V378.472C429.091 366.428 424.97 356.843 419.278 349.659C413.961 350.154 408.566 350.409 403.122 350.409C376.028 350.409 350.364 344.158 327.497 333.003H234.56H234.497H234.435H108.153L132.216 268.097C135.224 258.98 139.748 252.382 150.278 252.284H234.435H234.497H234.56H247.091C242.472 242.728 238.717 232.68 235.903 222.253H196.341H150.653V222.253ZM101.216 364.566C116.115 364.566 128.185 376.991 128.185 392.347C128.185 407.703 116.115 420.159 101.216 420.159C86.3181 420.159 74.2471 407.703 74.2471 392.347C74.2471 376.992 86.3181 364.566 101.216 364.566ZM367.872 364.566C382.771 364.566 394.841 376.992 394.841 392.347C394.841 407.703 382.771 420.159 367.872 420.159C352.974 420.159 340.841 407.703 340.841 392.347C340.841 376.991 352.974 364.566 367.872 364.566Z" fill="white"/>
<path d="M403.128 32.3237C323.267 32.3237 258.222 97.3686 258.222 177.23C258.222 257.091 323.267 322.136 403.128 322.136C482.989 322.136 548.034 257.091 548.034 177.23C548.034 97.3686 482.989 32.3237 403.128 32.3237V32.3237ZM403.128 60.1362C467.965 60.1362 520.222 112.393 520.222 177.23C520.222 242.067 467.965 294.324 403.128 294.324C338.291 294.324 286.034 242.067 286.034 177.23C286.034 112.393 338.291 60.1362 403.128 60.1362V60.1362Z" fill="white"/>
<path d="M516.652 71.474L498.361 59.1225C493.341 55.7354 486.42 57.0272 483 62.0213L393.46 193.413L352.285 152.451C348.009 148.198 340.978 148.198 336.67 152.451L321.055 168.017C316.748 172.302 316.748 179.281 321.055 183.582L384.338 246.536C387.886 250.065 393.444 252.775 398.48 252.775C403.485 252.775 408.552 249.64 411.799 244.93L519.63 86.7242C523.003 81.7458 521.688 74.8769 516.652 71.474V71.474Z" fill="white"/>
</g>
<defs>
<clipPath id="clip0">
<path d="M0 0H580V580H0V0Z" fill="white"/>
</clipPath>
</defs>
</svg>
